app/images/header/iphone.svg

<?xml version="1.0" encoding="UTF-8" standalone="no"?>
<svg width="316px" height="649px" viewBox="0 0 316 649" version="1.1" xmlns="http://www.w3.org/2000/svg" xmlns:xlink="http://www.w3.org/1999/xlink">
    <!-- Generator: Sketch 47.1 (45422) - http://www.bohemiancoding.com/sketch -->
    <title>iphone-x@2x</title>
    <desc>Created with Sketch.</desc>
    <defs></defs>
    <g id="Design" stroke="none" stroke-width="1" fill="none" fill-rule="evenodd">
        <g id="iphone-x" transform="translate(-5.000000, -3.000000)">
            <path d="M39.0367597,3 L286.96324,3 C305.761224,3 321,18.2387764 321,37.0367597 L321,617.96324 C321,636.761224 305.761224,652 286.96324,652 L39.0367597,652 C20.2387764,652 5,636.761224 5,617.96324 L5,37.0367597 L5,37.0367597 C5,18.2387764 20.2387764,3 39.0367597,3 L39.0367597,3 Z M41.5540645,16.8560606 L41.5540645,16.8560606 C29.5233551,16.8560606 19.7705382,26.6088775 19.7705382,38.6395868 L19.7705382,38.6395868 L19.7705382,614.572534 C19.7705382,626.603244 29.5233551,636.356061 41.5540645,636.356061 L284.445936,636.356061 C296.476645,636.356061 306.229462,626.603244 306.229462,614.572534 L306.229462,38.6395868 C306.229462,26.6088775 296.476645,16.8560606 284.445936,16.8560606 C272.231028,16.8560606 260.01612,16.8560606 247.801213,16.8560606 C244.976662,16.8560606 243.041366,17.9995886 242.675089,20.8565929 C242.308812,23.7135972 240.197102,39.2045455 227.90085,39.2045455 C218.053824,39.2045455 174.786591,39.2045455 98.0991501,39.2045455 C86.3106537,39.2045455 83.6280265,24.1557654 83.368204,20.9031438 C83.1083814,17.6505223 81.155124,16.8560606 79.7478754,16.8560606 C67.0166051,16.8560606 54.2853348,16.8560606 41.5540645,16.8560606 Z" id="Combined-Shape" fill="#212227"></path>
            <rect id="Rectangle-2" fill="#A8A8A8" x="142" y="22" width="41" height="6" rx="3"></rect>
            <circle id="Oval" fill="#A8A8A8" cx="197" cy="25" r="5"></circle>
            <rect id="Rectangle-3" fill="#FFFFFF" x="111" y="628" width="103" height="3" rx="1.5"></rect>
        </g>
    </g>
</svg>

<svg width="316" height="649" xmlns="http://www.w3.org/2000/svg"><g transform="translate(-5 -3)" fill="none" fill-rule="evenodd"><path d="M39.037 3h247.926C305.761 3 321 18.239 321 37.037v580.926C321 636.761 305.761 652 286.963 652H39.037C20.239 652 5 636.761 5 617.963V37.037C5 18.239 20.239 3 39.037 3zm2.517 13.856c-12.03 0-21.783 9.753-21.783 21.784v575.933c0 12.03 9.752 21.783 21.783 21.783h242.892c12.03 0 21.783-9.753 21.783-21.783V38.64c0-12.031-9.752-21.784-21.783-21.784H247.8c-2.824 0-4.76 1.144-5.126 4-.366 2.858-2.478 18.349-14.774 18.349H98.099c-11.788 0-14.471-15.05-14.73-18.302-.26-3.252-2.214-4.047-3.621-4.047H41.554z" fill="#212227"/><rect fill="#A8A8A8" x="142" y="22" width="41" height="6" rx="3"/><circle fill="#A8A8A8" cx="197" cy="25" r="5"/><rect fill="#FFF" x="111" y="628" width="103" height="3" rx="1.5"/></g></svg>
